X: 4
T:
C: Armand Aromin
H: 8/14/04
M: 2/4
L: 1/8
R: Polka
K: Amaj
Ae e/2d/2c | df fe | Ae e/2d/2c | dB BA |
Ae e/2d/2c | df fe | ce B>c | BA A2 :|
af ed | Bc de | af ed | eb b2 |
af ed | Bc d2 | ce B>c | BA A2 :|
